!!!OTL: 228. Ange
!!!Genre:	Ange
!!!Mode:	Major
!!!Listening/dance:	dance
!!!One_Mode:	no
**kern
*thru
*I"P1
*clefG2
*k[f#]
*C:
!LO:TX:a:t="Segno"
8.dL
16gJk
8bL
8ddJ
=10
(8qdd/
8ccL)
8bJ
8aL
8bJ
=11
8.dL
16gJk
8bL
8ddJ
=12
8ccL
8aJ
!LO:TX:b:Bi:t=Fine
4g
*>C
!!!Begin-Modulation
=13:|!
*C:
!LO:TX:a:i:t=C-major
2gg
=14
(8qff#/
2gg)
=15
(8qff#/
4gg)
(8qff#/
4gg)
=16
(8qff#/
4gg)
(8qff#/
4gg)
=17
16ggLL
16ffn
16ee
16ddJJ
8eetL
8ccJ
=18
16ggLL
16ffn
16ee
16ddJJ
8eeL
8ccJ
=19
16ggLL
16ffn
16ee
16ddJJ
16eeLL
16ff
16gg
16aaJJ
=20
!LO:TX:b:Bi:t=Dal Segno al Fine
16ggLL
16ffn
16ee
16ddJJ
8eetL
8ccJ
!!!End-Modulation
==
*-
